X: 148
T: Growling Old Man and Old Woman
T: Growling Old Man and Grumbling Old Woman
T: La Chicaneuse
C: French Canadian
B: NEFR #148
M: C|
L: 1/8
Z: Mary Lou Knack
N: Changed from K:Am to K:Ador, since all Fs are sharp.
N: Pickups moved around to be more clearly pickups.
N: There are many versions of this tune, mostly all compatible, with various minor differences.
R: reel
K: Ador
A,B, \
| "Am"CA, EA, CA, EA, | "G"B,G, DG, B,G, G,B, | "Am"CA, EA, CA, EA, | "G"B,A, G,B, "Am"A,2 A,B, |
| "Am"CA, EA, CA, A,C | "G"B,G, DG, B,A, G,B, | "Am"CA, EA, CA, A,C | "G"B,A, G,B, "Am"A,2 :|
|: ^cd \
| "A"ef ed ^cd ef | "G"ge dc BG GB | "A"ef ed ^cA cd | "E7"ea a^g "A"a2 ef |
| "A"gf ed ^cd ef | "G"ge dc BG GB | "Am"c2 ((3BcB) AG ED | "G"GE DB, "Am"A,2 :|

%%sep 1 1 500

